src/assets/partners/webskola.svg

<svg xmlns="http://www.w3.org/2000/svg" viewBox="0 0 67.787 43.756"><path fill="#BFBA00" d="M43.755 23.994H23.99l.002 7.542c-.002 6.72 5.5 12.22 12.22 12.22h7.542V23.994zM0 23.994v7.54c0 6.722 5.5 12.222 12.22 12.222h7.542V23.993H0zM19.762 19.764V12.22C19.762 5.5 14.264 0 7.542 0H0v19.764h19.762zM23.99 19.764h19.764V12.22c0-6.72-5.5-12.22-12.22-12.22L23.99.002l-.002 19.762zM48.025 23.993l-.002 19.763h7.543c6.72 0 12.22-5.5 12.22-12.22v-7.542h-19.76z"/><path fill="#FC943E" d="M67.786.002h-7.54C53.52 0 48.022 5.5 48.022 12.22v7.542h19.764V.002z"/></svg>

<svg xmlns="http://www.w3.org/2000/svg" viewBox="0 0 67.79 43.76"><path fill="#BFBA00" d="M43.76 24H23.99v7.54c0 6.72 5.5 12.22 12.22 12.22h7.54V23.99zM0 24v7.53c0 6.73 5.5 12.23 12.22 12.23h7.54V23.99H0zm19.76-4.24v-7.54C19.76 5.5 14.26 0 7.54 0H0v19.76h19.76zm4.23 0h19.76v-7.54C43.75 5.5 38.25 0 31.53 0H24v19.76zM48.03 24v19.77h7.54c6.72 0 12.22-5.5 12.22-12.22V24H48.03z"/><path fill="#FC943E" d="M67.79 0h-7.54c-6.73 0-12.23 5.5-12.23 12.22v7.54H67.8V0z"/></svg>
